X: 7306
T: Clement Sweeney's
R: reel
M: 4/4
K: Gmajor
|:D ~G3 DGBc|dBeB dBAF|G ~B3 eBdB|AcBG AGEG|
D ~G3 DGBc|dBeB dBAF|G ~B3 eBdB|AcBG AG G2:|
|:d ~g3 dgbg|gbaf gedg|e ~B3 eBdB|AcBG AGEG|
[1 d ~g3 dgbg|gbaf gedg|e ~B3 eBdB|AcBG AG G2:|
[2 D ~G3 DGBc|dBeB dBAF|G ~B3 eBdB|AcBG AG G2||

